X: 182
T: the Doublings
B: C. & S. Thompson, "The Compleat Tutor for the Fife" c.1760 p.18 #2
S: http://imslp.org/wiki/The_Compleat_Tutor_for_the_Fife_(Anonymous)
Z: 2014 John Chambers <jc:trillian.mit.edu>
M: 2/4
L: 1/16
K: G
% - - - - - - - - - - - - - - - - - - - - - - - - -
|:\
(G2AG) A2A2 | B2B2 {d}^c2(Bc) | d4 .d2.d2 | .g2.f2.e2.d2 | {d}^c2B2c2A2 | d4{ed}y :|
|:\
(G/A/B/c/) | d2Bc d2d2 | e2d2c2B2 | {B}A6 ((3def) | g4 d4 | e2(GA) B2TA2 | G6 :|
% - - - - - - - - - - - - - - - - - - - - - - - - -
